#define dolphin.xbm_width 32
#define dolphin.xbm_height 32
static char dolphin.xbm_bits[] = {
   0xaa, 0x7a, 0xaa, 0xab, 0x55, 0x3d, 0x55, 0x55, 0xaa, 0x9e, 0xaa, 0xaa,
   0x55, 0x5d, 0x55, 0x55, 0xaa, 0x9e, 0xaa, 0xaa, 0x55, 0x5d, 0x55, 0x55,
   0xaa, 0x9a, 0xaa, 0xaa, 0x55, 0x55, 0x55, 0x55, 0xaa, 0xaa, 0xaa, 0xba,
   0x55, 0x55, 0x55, 0x5f, 0xba, 0xaa, 0xea, 0xaf, 0x75, 0x55, 0xf5, 0x7f,
   0xff, 0xab, 0x0a, 0xfc, 0xff, 0x5f, 0x55, 0xf9, 0xff, 0xff, 0xaa, 0xf2,
   0xff, 0xff, 0x55, 0xe5, 0xff, 0xff, 0xab, 0x8a, 0xfc, 0xff, 0x57, 0x55,
   0x80, 0x03, 0xa8, 0xaa, 0xd5, 0x53, 0x55, 0x55, 0xaa, 0xa9, 0xaa, 0xaa,
   0xd5, 0x55, 0x75, 0x55, 0xaa, 0xaa, 0xea, 0xaa, 0x55, 0x55, 0xf5, 0x57,
   0xaa, 0xaa, 0xfa, 0xbf, 0x55, 0x55, 0xfd, 0xff, 0xab, 0xaa, 0xfe, 0xff,
   0x57, 0x55, 0xff, 0xff, 0xaf, 0xaa, 0xff, 0xff, 0x40, 0xd5, 0x1f, 0x07,
   0xaa, 0xea, 0xab, 0xaf, 0x55, 0xf5, 0x54, 0x53};
/******************************************************************************
*
* Copyright (c) 2009, 2015, Oracle and/or its affiliates. All rights reserved.
*
* Permission is hereby granted, free of charge, to any person obtaining a
* copy of this software and associated documentation files (the "Software"),
* to deal in the Software without restriction, including without limitation
* the rights to use, copy, modify, merge, publish, distribute, sublicense,
* and/or sell copies of the Software, and to permit persons to whom the
* Software is furnished to do so, subject to the following conditions:
*
* The above copyright notice and this permission notice (including the next
* paragraph) shall be included in all copies or substantial portions of the
* Software.
*
* THE SOFTWARE IS PROVIDED "AS IS", WITHOUT WARRANTY OF ANY KIND, EXPRESS OR
* IMPLIED, INCLUDING BUT NOT LIMITED TO THE WARRANTIES OF MERCHANTABILITY,
* FITNESS FOR A PARTICULAR PURPOSE AND NONINFRINGEMENT.  IN NO EVENT SHALL
* THE AUTHORS OR COPYRIGHT HOLDERS BE LIABLE FOR ANY CLAIM, DAMAGES OR OTHER
* LIABILITY, WHETHER IN AN ACTION OF CONTRACT, TORT OR OTHERWISE, ARISING
* FROM, OUT OF OR IN CONNECTION WITH THE SOFTWARE OR THE USE OR OTHER
* DEALINGS IN THE SOFTWARE.
*/