#define fuji_width 32
#define fuji_height 32
static char fuji_bits[] = {
 0x00,0xe8,0x2f,0x00,0x00,0xfc,0x7f,0x00,0x00,0xff,0xfe,0x01,0xc0,0x57,0xd5,
 0x07,0x70,0x0d,0x60,0x1d,0x98,0x00,0x00,0x32,0x02,0x00,0x00,0x80,0x00,0x00,
 0x00,0x00,0x2f,0x00,0x00,0xe8,0x7f,0x00,0x00,0xfc,0xfe,0x01,0x00,0xff,0xd5,
 0x07,0xc0,0x57,0x60,0x1d,0x70,0x0d,0x00,0x32,0x98,0x00,0x00,0x80,0x02,0x00,
 0x00,0x00,0x00,0x00,0x00,0xe8,0x2f,0x00,0x00,0xfc,0x7f,0x00,0x00,0xff,0xfe,
 0x01,0xc0,0x57,0xd5,0x07,0x70,0x0d,0x60,0x1d,0x98,0x00,0x00,0x32,0x02,0x00,
 0x00,0x80,0x00,0x00,0x00,0x00,0x2f,0x00,0x00,0xe8,0x7f,0x00,0x00,0xfc,0xfe,
 0x01,0x00,0xff,0xd5,0x07,0xc0,0x57,0x60,0x1d,0x70,0x0d,0x00,0x32,0x98,0x00,
 0x00,0x80,0x02,0x00,0x00,0x00,0x00,0x00};
/******************************************************************************
*
* Copyright (c) 2009, 2015, Oracle and/or its affiliates. All rights reserved.
*
* Permission is hereby granted, free of charge, to any person obtaining a
* copy of this software and associated documentation files (the "Software"),
* to deal in the Software without restriction, including without limitation
* the rights to use, copy, modify, merge, publish, distribute, sublicense,
* and/or sell copies of the Software, and to permit persons to whom the
* Software is furnished to do so, subject to the following conditions:
*
* The above copyright notice and this permission notice (including the next
* paragraph) shall be included in all copies or substantial portions of the
* Software.
*
* THE SOFTWARE IS PROVIDED "AS IS", WITHOUT WARRANTY OF ANY KIND, EXPRESS OR
* IMPLIED, INCLUDING BUT NOT LIMITED TO THE WARRANTIES OF MERCHANTABILITY,
* FITNESS FOR A PARTICULAR PURPOSE AND NONINFRINGEMENT.  IN NO EVENT SHALL
* THE AUTHORS OR COPYRIGHT HOLDERS BE LIABLE FOR ANY CLAIM, DAMAGES OR OTHER
* LIABILITY, WHETHER IN AN ACTION OF CONTRACT, TORT OR OTHERWISE, ARISING
* FROM, OUT OF OR IN CONNECTION WITH THE SOFTWARE OR THE USE OR OTHER
* DEALINGS IN THE SOFTWARE.
*/