#define southwest_width 32
#define southwest_height 32
static char southwest_bits[] = {
 0x55,0xd5,0x3c,0x53,0xaa,0x6a,0x9a,0xa9,0x55,0x35,0xcd,0x54,0xaa,0x9a,0xa6,
 0xaa,0x55,0x4d,0x53,0x55,0xaa,0xa2,0xa9,0xaa,0x55,0xd5,0x54,0x55,0xaa,0x6a,
 0xaa,0xaa,0x55,0x15,0x55,0x55,0xaa,0xaa,0xaa,0xaa,0x55,0x55,0x55,0x55,0xaa,
 0xaa,0xaa,0xaa,0x55,0x55,0x55,0x55,0xaa,0xaa,0xaa,0xaa,0x55,0x55,0x55,0x55,
 0xaa,0xaa,0xaa,0xaa,0x55,0x55,0x55,0x55,0xaa,0xaa,0xaa,0xaa,0x55,0x55,0x55,
 0x55,0xaa,0xaa,0xaa,0xaa,0x55,0x55,0x55,0x55,0xaa,0xaa,0xaa,0xaa,0x55,0x55,
 0x75,0x5d,0xaa,0xaa,0xfa,0xae,0x55,0x55,0xcd,0x45,0xaa,0xaa,0xe6,0xa3,0x55,
 0x55,0xf3,0x57,0xaa,0xaa,0xf9,0xaf,0x55,0x55,0xf4,0x5f,0xaa,0xaa,0xee,0x99,
 0x55,0x55,0xdf,0x4c,0xaa,0xaa,0x3f,0xa6};
/******************************************************************************
*
* Copyright (c) 2009, 2015, Oracle and/or its affiliates. All rights reserved.
*
* Permission is hereby granted, free of charge, to any person obtaining a
* copy of this software and associated documentation files (the "Software"),
* to deal in the Software without restriction, including without limitation
* the rights to use, copy, modify, merge, publish, distribute, sublicense,
* and/or sell copies of the Software, and to permit persons to whom the
* Software is furnished to do so, subject to the following conditions:
*
* The above copyright notice and this permission notice (including the next
* paragraph) shall be included in all copies or substantial portions of the
* Software.
*
* THE SOFTWARE IS PROVIDED "AS IS", WITHOUT WARRANTY OF ANY KIND, EXPRESS OR
* IMPLIED, INCLUDING BUT NOT LIMITED TO THE WARRANTIES OF MERCHANTABILITY,
* FITNESS FOR A PARTICULAR PURPOSE AND NONINFRINGEMENT.  IN NO EVENT SHALL
* THE AUTHORS OR COPYRIGHT HOLDERS BE LIABLE FOR ANY CLAIM, DAMAGES OR OTHER
* LIABILITY, WHETHER IN AN ACTION OF CONTRACT, TORT OR OTHERWISE, ARISING
* FROM, OUT OF OR IN CONNECTION WITH THE SOFTWARE OR THE USE OR OTHER
* DEALINGS IN THE SOFTWARE.
*/
